X:54
T:chords with more rhythmic variety
M:3/2
L:1/2
Q:1/2=100
K:Dmin
%%MIDI program 1 70 % Bassoon
%%MIDI program 2 68 % Oboe
V:Bassoon
z3|d//f/a//f//a/d//z|f//a//z/c'//a//z/f//c//z/|d/f//a//b/f//d//z|(3c/e/_g/ z/ (3e/_g/c/ z/|f//a//c//e//d//f//c//a//z|d//>a//c//a//c/>d/a||
V:Oboe%%name="Oboe" snm="Ob"
z2 D|D2 (C/2D/2)|F2 (G/2F/2)|D2 A|c2 (A/2G/2)|F2 G|A3||
